X:1
T:O Dark Was the Night
T:O Dark Was the Night
T:Benn Wilkes Jones Trevaldwyn
T:Anonymous, before 1917
T:Public Domain Courtesy of the Cyber Hymnal™
T:Public Domain Courtesy of the Cyber Hymnal™
C:Benn Wilkes Jones Trevaldwyn
Z:Public Domain
Z:Courtesy of the Cyber Hymnal™
%%score ( 1 2 ) ( 3 4 ) ( 5 6 )
L:1/8
Q:1/4=95
M:4/4
K:Bb
V:1 treble 
V:2 treble 
V:3 treble 
V:4 treble 
V:5 bass 
V:6 bass 
V:1
 F | F2 =E>G F3 B | B2 A>c B3 B | d2 BG F2 DG | F2 C>C D3 F | F2 =EG F2 EF | B2 c2 d3 d | %7
w: 1.~O|dark was the night and|cold blew the wind, But|Jo- seph and Ma- ry no|shel- ter could find; In|all the fair ci- ty of|Beth- le- hem, In|
w: 2.~But|in a poor sta- ble|their couch was made, And|low in a man- ger the|Ba- be was laid. O|fair was the Child, the mo-|ther how fair! But|
w: 3.~But|out on the hills was|a won- drous light, And|hea- ven- ly mu- sic en-|tra- nced the night; And|beasts of the field were roused|in their lair By|
w: 4.~And|shep- herds a- watch- ing|their flocks by night Es-|pied in the hea- vens a|mar- vel- ous sight; Of|an- gels and spir- its a|might- y throng. For|
w: 5.~O~come|then, ye faith- ful, ye|men of good will, Let|joy and thanks- giv- ing ev-|er- y heart fill; Tell|out the glad tid- ings that|Jesus has come, To|
 d2 cG B2 AG x4 | F2 c2 B3 z ||"^Refrain" [DB]>[DB] [DB][GB] [FB]2 [FA]2 | %10
w: cot- tage or inn was no|room for them!||
w: on- ly the ox- en stood|wait- ing there!||
w: the sound of voic- es and|harps in the~air.|Glo- ria in ex- cel- sis,|
w: joy and great glad- ness sing-|ing this song:||
w: o- pen the way to the|heaven- ly home.||
 [Fe]>[Fe] [Fd][Fc] [Fc]2 [FB]2 | [EG]>[EG] [EB][EG] F2 [DB]2 | (BAGA) [DB]3 |] %13
w: |||
w: |||
w: Glo- ria in ex- cel- sis,|Glo- ria in ex- cel- sis|De- * * * o.|
w: |||
w: |||
V:2
 x | x8 | x8 | x8 | x8 | x8 | x8 | x12 | x8 || x8 | x8 | x4 F2 x2 | E4 x3 |] %13
V:3
 [DF] | [DF]2 ^E>G [DF]3 [DB] | B2 [DB]3 B x2 | d2 BG F2 DG | F2 C>C D3 [DF] | %5
 [DF]2 =EG [=DF]2 x2 | [FB]2 [Fd]2 [Fd]3 [Fd] | d2 B2 x8 | F2 c2 [DB]3 z || x8 | x8 | x8 | x7 |] %13
V:4
 x | x2 ^C2 x4 | E4 A>c x2 | x8 | x8 | x2 ^D2 ^DF x2 | x8 | G4 cG E4 AG | E4 x4 || x8 | x8 | x8 | %12
 x7 |] %13
V:5
 [B,,F,] | F,2 G,>=E, [B,,F,]4 | [F,,F,]4 [B,,F,]3 B, | D2 B,G, F,2 D,G, | F,2 C,>C, D,3 [B,,F,] | %5
 [B,,F,]2 G,=E, [B,,F,]2 [B,,F,]2 | [D,B,]2 [F,A,]2 B,3 B, | [E,B,]4 F,4 x4 | [F,A,]4 [B,,B,]3 z || %9
 [B,,B,]>[B,,B,] [G,B,][=E,C] [F,C]2 [F,C]2 | [F,A,]>[F,A,] [G,B,][A,E] [B,E]2 [B,D]2 | %11
 [E,B,]>[E,B,] [E,G,][E,B,] [D,B,]2 [B,,F,]2 | (F, C2 F, [B,,F,]3) |] %13
V:6
 x | B,,4 x4 | x8 | x8 | x8 | x2 B,,2 x4 | x8 | x12 | x8 || x8 | x8 | x8 | F,4 x3 |] %13

